!! 00047] TT[KA
!! NN
!!!OTL: Niu ge
!!!ARE: Asia, China,ÿAnhui, Tongling
!! Ethnic Group: Han
!! III, 564, 2)
!!!SCT: C0347
!!!YEM: Copyright 1995, estate of Helmut Schaffrath.
**kern
*ICvox
*Ivox
!! Mixed meters:  2/4; 4/4
*M4/4
*k[b-e-]
*B-:
{8b-
8g
8dd
16cc
16b-
=1
2g
=2
8b-
8g
8dd
16cc
16b-
=3
2g}
=4
{8b-
16b-
16g
8b-
8cc
=5
4dd
8cc
8g
=6
8b-
8b-
8cc
16b-
16cc
=7
2g}
=8
{8cc
8dd
8cc
16b-
16g
=9
8f
4f
8g
=10
8b-
8g
8cc
16cc
16b-
=11
2g}
=12
{8b-
8g
8dd
16cc
16b-
=13
2g
=14
8b-
8g
8dd
16cc
16b-
=15
2g}
=16
{8b-
16b-
16g
8b-
8cc
=17
4dd
8cc
8g
=18
8b-
8b-
8cc
16b-
16cc
=19
2g}
=20
{8cc
8dd
8cc
16b-
16g
=21
8f
4f
8g
=22
8b-
8g
8cc
16cc
16b-
=23
2g}
=24
{8b-
8g
8b-
8cc
=25
4dd
8cc
8g
=26
8b-
8b-
8cc
16b-
16cc
=27
2g}
=28
{8cc
8dd
8cc
16b-
16g
=29
8f
4f
8g
=30
8b-
8g
8cc
16cc
16b-
=31
2g}
=32
{8.a
16a
8a
8cc
8.dd
16cc
4a
=33
8dd
8cc
8dd
4ff
16dd
16ff
4cc}
=34
{8ff
8ff
8cc
8ff
8.dd
16cc
4a
=35
8.cc
16dd
8a
16g
16a
2cc}
=36
{8.a
16a
8a
8cc
8.dd
16cc
4a
=37
8dd
8cc
8dd
4ff
16dd
16ff
4cc}
=38
{8ff
8ff
8cc
8ff
8.dd
16cc
4a
=39
8.cc
16dd
8a
16g
16a
2cc}
=40
{8.a
16a
8a
8cc
8.dd
16cc
4a
=41
8dd
8cc
8dd
4ff
16dd
16ff
4cc}
=42
{8.ff
16ff
8cc
8ff
8.dd
16cc
4a
=43
8.cc
16dd
8cc
8a
4g}
{8g
16g
16a
=44
4cc
8dd
16dd
16cc
4a
8g
16g
16a
=45
4cc
8dd
16dd
16cc
8a
8cc
8g
8f
=46
1a}
=47
*M2/4
{8b-
8g
8dd
16cc
16b-
=48
2g
=49
8b-
8g
8dd
16cc
16b-
=50
2g}
=51
{8b-
16b-
16g
8b-
8cc
=52
4dd
8cc
8g
=53
8b-
8b-
8cc
16b-
16cc
=54
2g}
=55
{8cc
8dd
8cc
16b-
16g
=56
8f
4f
8g
=57
8b-
8b-
8cc
16b-
16cc
=58
2g}
==
!!!AGN: Shange, Muniu shange
!! Anfangs hat es den Charakter des Bergliedes, aber ab S. 565
!!   , vorletzte Zeile) beginnt eine neue Melodie mit Elementen des
!!    Xiaodiao,und Dui hui. Form: A-B-A
!!    +++ GRUNDTONWECHSEL in Phr.9-20: 1=F, -6=2) - B - F!! +++
!!    Vereinzelt Verzierungen. Zhuandiao: g YU - a JIAO - g YU
!!!ONB: ESAC (Essen Associative Code) Database: CHINA
!!!AMT: irregular
!!!AIN: vox
!!!EED: Helmut Schaffrath
!!!EEV: 1.0
*-
